X: 1
T: Limerick Lasses, The
M: 4/4
L: 1/8
R: reel
K: Dmaj
S: Matt Molloy, Paul Brady, Tommy Peoples
|:dBAF DEFD | ~G3A BE~E2 | dBAF DEFD | GBAG FDD2 :|
|:dcde ~f3d | efed cA~A2 | B/c/d ef g2ag| faea fddA:| 
|:BdAd BdAd | Bdef gfed| BdAd Bdag| faea fd~d2:|
